client/public/assets/icons/standard/strategy.svg

<?xml version="1.0"?><svg xmlns="http://www.w3.org/2000/svg" width="100" height="100" viewBox="0 0 100 100"><title></title><desc></desc><path fill="#fff" d="m76.1 40.8h-10.1c-2.2 0-4 1.8-4 4v2.5h-9.4v-19.7c0-0.6-0.6-1.3-1.3-1.3h-13.3v-2.4c0-2.2-1.8-4-4-4h-10.1c-2.2 0-4 1.8-4 4v10.1c0 2.2 1.8 4 4 4h10.1c2.2 0 4-1.8 4-4v-2.4h9.3v15.7h-9.3v-2.3c0-2.2-1.8-4-4-4h-10.1c-2.2 0-4 1.8-4 4v10c0 2.2 1.8 4 4 4h10.1c2.2 0 4-1.8 4-4v-2.4h9.3v15.7h-9.3v-2.3c0-2.2-1.8-4-4-4h-10.1c-2.2 0-4 1.8-4 4v10.1c0 2.2 1.8 4 4 4h10.1c2.2 0 4-1.8 4-4v-2.4h13.3c0.7 0 1.3-0.7 1.3-1.3v-19.7h9.4v2.2c0 2.2 1.8 4 4 4h10.1c2.2 0 4-1.8 4-4v-10.1c0-2.2-1.8-4-4-4z m-42.1-6.8h-10.1v-10.1h10.1v10.1z m0 2v-2 2z m0 19h-10.1v-10h10.1v10z m0 2v-2 2z m0 19.1h-10.1v-10.1h10.1v10.1z m0 2v-2 2z m42.1-23.2h-10.1v-10.1h10.1v10.1z m0 2v-2 2z"></path></svg>

<?xml version="1.0" encoding="utf-8"?>
<!-- Generator: Adobe Illustrator 21.1.0, SVG Export Plug-In . SVG Version: 6.00 Build 0)  -->
<svg version="1.1" id="Layer_1" xmlns="http://www.w3.org/2000/svg" xmlns:xlink="http://www.w3.org/1999/xlink" x="0px" y="0px"
	 width="100px" height="100px" viewBox="0 0 100 100" enable-background="new 0 0 100 100" xml:space="preserve">
<title></title>
<desc></desc>
<path fill="#FFFFFF" d="M76.1,40.8H66c-2.2,0-4,1.8-4,4v2.5h-9.4V27.6c0-0.6-0.6-1.3-1.3-1.3h-1.6h-1.1H38v-2.4c0-2.2-1.8-4-4-4
	H23.9c-2.2,0-4,1.8-4,4V34c0,2.2,1.8,4,4,4H34c2.2,0,4-1.8,4-4v-2.4h9.3v15.7H38V45c0-2.2-1.8-4-4-4H23.9c-2.2,0-4,1.8-4,4V55
	c0,2.2,1.8,4,4,4H34c2.2,0,4-1.8,4-4v-2.4h9.3v15.7H38V66c0-2.2-1.8-4-4-4H23.9c-2.2,0-4,1.8-4,4v10.1c0,2.2,1.8,4,4,4H34
	c2.2,0,4-1.8,4-4v-2.4h10.6h1.1h1.6c0.7,0,1.3-0.7,1.3-1.3V52.7H62v2.2c0,2.2,1.8,4,4,4h10.1c2.2,0,4-1.8,4-4V44.8
	C80.1,42.6,78.3,40.8,76.1,40.8z M34,34H23.9V23.9H34L34,34z M34,36v-2h0L34,36z M34,55H23.9V45H34L34,55z M34,57v-2h0L34,57z
	 M34,76.1H23.9V66H34L34,76.1z M34,78.1v-2h0L34,78.1z M76.1,54.9H66V44.8h10.1L76.1,54.9z M76.1,56.9v-2h0L76.1,56.9z"/>
</svg>
